Newaita-dark/apps/48/teamviewer.svg

<svg height="48pt" viewBox="0 0 48 48" width="48pt" xmlns="http://www.w3.org/2000/svg" xmlns:xlink="http://www.w3.org/1999/xlink"><linearGradient id="a" gradientUnits="userSpaceOnUse" x1="23.81478" x2="23.81478" y1="42.0509045" y2="44.03547050005"><stop offset="0" stop-opacity=".27451"/><stop offset="1" stop-opacity="0"/></linearGradient><linearGradient id="b"><stop offset="0" stop-opacity=".313726"/><stop offset=".222222" stop-opacity=".27451"/><stop offset="1" stop-opacity="0"/></linearGradient><radialGradient id="c" cx="450.908936" cy="189.579361" gradientTransform="matrix(.00000026 -.117199 -.210958 -.00000015 79.684395 95.392999)" gradientUnits="userSpaceOnUse" r="21.166656" xlink:href="#b"/><radialGradient id="d" cx="450.908936" cy="189.579361" gradientTransform="matrix(-.00000026 .117199 .210958 .00000015 -31.80678 -11.291218)" gradientUnits="userSpaceOnUse" r="21.166656" xlink:href="#b"/><radialGradient id="e" cx="450.908936" cy="189.579361" gradientTransform="matrix(-.00000026 -.117199 .210958 -.00000015 -31.80678 95.392999)" gradientUnits="userSpaceOnUse" r="21.166656" xlink:href="#b"/><radialGradient id="f" cx="450.908936" cy="189.579361" gradientTransform="matrix(.00000026 .117199 -.210958 .00000015 79.684393 -11.291219)" gradientUnits="userSpaceOnUse" r="21.166656" xlink:href="#b"/><linearGradient id="g"><stop offset="0" stop-color="#1e88e5"/><stop offset="1" stop-color="#2196f3"/></linearGradient><linearGradient id="h" gradientUnits="userSpaceOnUse" x1="23.814786" x2="23.814786" xlink:href="#g" y1="42.0509015" y2="4.34415649995"/><linearGradient id="i" gradientUnits="userSpaceOnUse" x1="23.566827" x2="23.566827" y1="37.64523930316" y2="10.29781155726"><stop offset="0" stop-color="#e0e0e0"/><stop offset="1" stop-color="#bdbdbd"/></linearGradient><linearGradient id="j" gradientUnits="userSpaceOnUse" x1="23.814816" x2="23.814816" xlink:href="#g" y1="29.15127380616" y2="18.23614829293"/><path d="m7.691406 42.050781h32.496094v1.984375h-32.496094zm0 0" fill="url(#a)"/><path d="m40.1875 42.050781h3.96875v-1.984375h-3.96875zm0 0" fill="url(#c)"/><path d="m7.691406 42.050781h-3.96875v1.984375h3.96875zm0 0" fill="url(#d)"/><path d="m7.691406 42.050781h-3.96875v-1.984375h3.96875zm0 0" fill="url(#e)"/><path d="m40.1875 42.050781h3.96875v1.984375h-3.96875zm0 0" fill="url(#f)"/><path d="m5.457031 4.34375h36.714844c.820313 0 1.488281.667969 1.488281 1.488281v34.730469c0 .820312-.667968 1.488281-1.488281 1.488281h-36.714844c-.820312 0-1.488281-.667969-1.488281-1.488281v-34.730469c0-.820312.667969-1.488281 1.488281-1.488281zm0 0" fill="url(#h)"/><path d="m5.457031 4.34375c-.824219 0-1.488281.664062-1.488281 1.488281v.25c0-.824219.664062-1.488281 1.488281-1.488281h36.714844c.824219 0 1.488281.664062 1.488281 1.488281v-.25c0-.824219-.664062-1.488281-1.488281-1.488281zm0 0" fill="#fff" fill-opacity=".392157"/><path d="m5.457031 42.050781c-.824219 0-1.488281-.664062-1.488281-1.488281v-.25c0 .824219.664062 1.488281 1.488281 1.488281h36.714844c.824219 0 1.488281-.664062 1.488281-1.488281v.25c0 .824219-.664062 1.488281-1.488281 1.488281zm0 0" fill="#030303" fill-opacity=".235294"/><path d="m5.457031 4.203125c-.898437 0-1.628906.730469-1.628906 1.628906v34.730469c0 .898438.730469 1.628906 1.628906 1.628906h36.714844c.898437 0 1.628906-.730468 1.628906-1.628906v-34.730469c0-.898437-.730469-1.628906-1.628906-1.628906zm0 .28125h36.714844c.75 0 1.347656.597656 1.347656 1.347656v34.730469c0 .75-.597656 1.347656-1.347656 1.347656h-36.714844c-.75 0-1.347656-.597656-1.347656-1.347656v-34.730469c0-.75.597656-1.347656 1.347656-1.347656zm0 0" fill="#212121"/><path d="m23.816406 9.304688c7.671875 0 13.890625 6.21875 13.890625 13.894531 0 7.671875-6.21875 13.890625-13.890625 13.890625-7.675781 0-13.894531-6.21875-13.894531-13.890625 0-7.675781 6.21875-13.894531 13.894531-13.894531zm0 0" fill="url(#i)"/><path d="m19.84375 18.234375-4.960938 3.972656c-.992187.992188-.992187.992188 0 1.984375l4.960938 4.464844v-2.976562h7.941406v2.976562l4.960938-4.464844c.992187-.992187.992187-.992187 0-1.984375l-4.960938-3.972656v2.980469h-7.941406zm0 0" fill="url(#j)"/><path d="m19.84375 18.234375-4.960938 3.972656c-.652343.652344-.875.875-.664062 1.238281.105469-.183593.328125-.40625.664062-.742187l4.960938-3.972656zm7.941406 0v.496094l4.960938 3.972656c.335937.335937.558594.558594.664062.742187.210938-.363281-.007812-.585937-.664062-1.238281zm-7.941406 2.980469v.496094h7.941406v-.496094zm0 0" fill="#fff" fill-opacity=".392157"/><path d="m14.300781 23.570312c-.335937.441407-.144531.636719.582031 1.363282l4.960938 4.464844v-.742188l-4.960938-4.464844c-.261718-.265625-.457031-.460937-.582031-.621094zm19.027344 0c-.125.160157-.316406.355469-.582031.621094l-4.960938 4.464844v.742188l4.960938-4.464844c.726562-.726563.921875-.921875.582031-1.363282zm-13.484375 2.109376v.742187h7.941406v-.742187zm0 0" fill-opacity=".235294"/><path d="m19.839844 18.09375c-.027344.003906-.058594.011719-.082032.03125l-4.960937 3.96875c-.003906.003906-.007813.007812-.011719.011719-.25.25-.4375.433593-.570312.601562-.132813.164063-.214844.320313-.214844.492188 0 .167969.082031.324219.214844.488281.132812.167969.320312.355469.570312.601562l4.964844 4.46875c.042969.039063.101562.046876.152344.027344.050781-.023437.082031-.074218.082031-.128906v-2.835938h7.660156v2.835938c0 .054688.03125.105469.082031.128906.050782.019532.109376.011719.152344-.027344l4.960938-4.464843c.253906-.25.441406-.4375.574218-.605469.132813-.164062.214844-.320312.214844-.488281 0-.171875-.082031-.328125-.214844-.492188-.132812-.167969-.320312-.351562-.570312-.601562-.003906-.003907-.007812-.007813-.011719-.011719l-4.960937-3.96875c-.042969-.03125-.097656-.039062-.148438-.015625-.046875.023437-.078125.074219-.078125.125v2.839844h-7.660156v-2.839844c0-.035156-.011719-.074219-.039063-.097656-.027343-.027344-.066406-.042969-.105468-.042969zm-.136719.433594v2.6875c0 .074218.066406.140625.140625.140625h7.941406c.078125 0 .140625-.066407.140625-.140625v-2.6875l4.726563 3.78125c.242187.246094.425781.429687.542968.574218.113282.144532.152344.238282.152344.316407 0 .074219-.039062.167969-.152344.3125-.117187.144531-.300781.328125-.546874.578125l-4.722657 4.25v-2.660156c0-.078126-.0625-.140626-.140625-.140626h-7.941406c-.074219 0-.140625.0625-.140625.140626v2.660156l-4.722656-4.25c-.246094-.25-.429688-.433594-.542969-.578125-.117188-.144531-.15625-.238281-.15625-.3125 0-.078125.039062-.171875.15625-.316407.113281-.144531.296875-.328124.542969-.574218zm0 0" fill="#212121"/><path d="m23.816406 9.304688c-7.699218 0-13.894531 6.195312-13.894531 13.894531 0 .121093.003906.246093.003906.371093.199219-7.523437 6.316407-13.519531 13.890625-13.519531 7.570313 0 13.691406 5.996094 13.886719 13.519531 0-.125.003906-.25.003906-.371093 0-7.699219-6.195312-13.894531-13.890625-13.894531zm0 0" fill="#030303" fill-opacity=".235294"/><path d="m23.816406 37.089844c-7.699218 0-13.894531-6.195313-13.894531-13.890625 0-.125.003906-.25.003906-.375.199219 7.523437 6.316407 13.519531 13.890625 13.519531 7.570313 0 13.691406-5.996094 13.886719-13.519531 0 .125.003906.25.003906.375 0 7.695312-6.195312 13.890625-13.890625 13.890625zm0 0" fill="#fff" fill-opacity=".392157"/><path d="m23.816406 9.164062c-7.773437 0-14.035156 6.261719-14.035156 14.035157 0 7.769531 6.261719 14.03125 14.035156 14.03125 7.769532 0 14.03125-6.261719 14.03125-14.03125 0-7.773438-6.261718-14.035157-14.03125-14.035157zm0 .28125c7.617188 0 13.75 6.132813 13.75 13.753907 0 7.617187-6.132812 13.75-13.75 13.75-7.621094 0-13.753906-6.132813-13.753906-13.75 0-7.621094 6.132812-13.753907 13.753906-13.753907zm0 0" fill="#212121"/></svg>

<?xml version="1.0" encoding="UTF-8"?>
<svg xmlns="http://www.w3.org/2000/svg" xmlns:xlink="http://www.w3.org/1999/xlink" width="48pt" height="48pt" viewBox="0 0 48 48" version="1.1">
<defs>
<linearGradient id="linear0" gradientUnits="userSpaceOnUse" x1="254" y1="233.5" x2="254" y2="254.666672" gradientTransform="matrix(0.093759,0,0,0.093759,-0.00000572259,20.158178)">
<stop offset="0" style="stop-color:rgb(0%,0%,0%);stop-opacity:0.27451;"/>
<stop offset="1" style="stop-color:rgb(0%,0%,0%);stop-opacity:0;"/>
</linearGradient>
<radialGradient id="radial0" gradientUnits="userSpaceOnUse" cx="450.908936" cy="189.579361" fx="450.908936" fy="189.579361" r="21.166656" gradientTransform="matrix(0.000000261256,-0.117199,-0.210958,-0.000000152308,79.684395,95.392999)">
<stop offset="0" style="stop-color:rgb(0%,0%,0%);stop-opacity:0.313726;"/>
<stop offset="0.222222" style="stop-color:rgb(0%,0%,0%);stop-opacity:0.27451;"/>
<stop offset="1" style="stop-color:rgb(0%,0%,0%);stop-opacity:0;"/>
</radialGradient>
<radialGradient id="radial1" gradientUnits="userSpaceOnUse" cx="450.908936" cy="189.579361" fx="450.908936" fy="189.579361" r="21.166656" gradientTransform="matrix(-0.000000261256,0.117199,0.210958,0.000000152308,-31.80678,-11.291218)">
<stop offset="0" style="stop-color:rgb(0%,0%,0%);stop-opacity:0.313726;"/>
<stop offset="0.222222" style="stop-color:rgb(0%,0%,0%);stop-opacity:0.27451;"/>
<stop offset="1" style="stop-color:rgb(0%,0%,0%);stop-opacity:0;"/>
</radialGradient>
<radialGradient id="radial2" gradientUnits="userSpaceOnUse" cx="450.908936" cy="189.579361" fx="450.908936" fy="189.579361" r="21.166656" gradientTransform="matrix(-0.000000261256,-0.117199,0.210958,-0.000000152308,-31.80678,95.392999)">
<stop offset="0" style="stop-color:rgb(0%,0%,0%);stop-opacity:0.313726;"/>
<stop offset="0.222222" style="stop-color:rgb(0%,0%,0%);stop-opacity:0.27451;"/>
<stop offset="1" style="stop-color:rgb(0%,0%,0%);stop-opacity:0;"/>
</radialGradient>
<radialGradient id="radial3" gradientUnits="userSpaceOnUse" cx="450.908936" cy="189.579361" fx="450.908936" fy="189.579361" r="21.166656" gradientTransform="matrix(0.000000261256,0.117199,-0.210958,0.000000152308,79.684393,-11.291219)">
<stop offset="0" style="stop-color:rgb(0%,0%,0%);stop-opacity:0.313726;"/>
<stop offset="0.222222" style="stop-color:rgb(0%,0%,0%);stop-opacity:0.27451;"/>
<stop offset="1" style="stop-color:rgb(0%,0%,0%);stop-opacity:0;"/>
</radialGradient>
<linearGradient id="linear1" gradientUnits="userSpaceOnUse" x1="254" y1="233.5" x2="254" y2="-168.666672" gradientTransform="matrix(0.093759,0,0,0.093759,0,20.158175)">
<stop offset="0" style="stop-color:rgb(11.764706%,53.333336%,89.803922%);stop-opacity:1;"/>
<stop offset="1" style="stop-color:rgb(12.941177%,58.823532%,95.294118%);stop-opacity:1;"/>
</linearGradient>
<linearGradient id="linear2" gradientUnits="userSpaceOnUse" x1="254" y1="169.57666" x2="254" y2="-94.583336" gradientTransform="matrix(0.103526,0,0,0.103526,-2.728777,20.089646)">
<stop offset="0" style="stop-color:rgb(87.843138%,87.843138%,87.843138%);stop-opacity:1;"/>
<stop offset="1" style="stop-color:rgb(74.117649%,74.117649%,74.117649%);stop-opacity:1;"/>
</linearGradient>
<linearGradient id="linear3" gradientUnits="userSpaceOnUse" x1="960" y1="1175.118164" x2="960" y2="735.118103" gradientTransform="matrix(0.0248071,0,0,0.0248071,0,0.00000000000000282)">
<stop offset="0" style="stop-color:rgb(11.764706%,53.333336%,89.803922%);stop-opacity:1;"/>
<stop offset="1" style="stop-color:rgb(12.941177%,58.823532%,95.294118%);stop-opacity:1;"/>
</linearGradient>
</defs>
<g id="surface1">
<path style=" stroke:none;fill-rule:nonzero;fill:url(#linear0);" d="M 7.691406 42.050781 L 40.1875 42.050781 L 40.1875 44.035156 L 7.691406 44.035156 Z M 7.691406 42.050781 "/>
<path style=" stroke:none;fill-rule:nonzero;fill:url(#radial0);" d="M 40.1875 42.050781 L 44.15625 42.050781 L 44.15625 40.066406 L 40.1875 40.066406 Z M 40.1875 42.050781 "/>
<path style=" stroke:none;fill-rule:nonzero;fill:url(#radial1);" d="M 7.691406 42.050781 L 3.722656 42.050781 L 3.722656 44.035156 L 7.691406 44.035156 Z M 7.691406 42.050781 "/>
<path style=" stroke:none;fill-rule:nonzero;fill:url(#radial2);" d="M 7.691406 42.050781 L 3.722656 42.050781 L 3.722656 40.066406 L 7.691406 40.066406 Z M 7.691406 42.050781 "/>
<path style=" stroke:none;fill-rule:nonzero;fill:url(#radial3);" d="M 40.1875 42.050781 L 44.15625 42.050781 L 44.15625 44.035156 L 40.1875 44.035156 Z M 40.1875 42.050781 "/>
<path style=" stroke:none;fill-rule:nonzero;fill:url(#linear1);" d="M 5.457031 4.34375 L 42.171875 4.34375 C 42.992188 4.34375 43.660156 5.011719 43.660156 5.832031 L 43.660156 40.5625 C 43.660156 41.382812 42.992188 42.050781 42.171875 42.050781 L 5.457031 42.050781 C 4.636719 42.050781 3.96875 41.382812 3.96875 40.5625 L 3.96875 5.832031 C 3.96875 5.011719 4.636719 4.34375 5.457031 4.34375 Z M 5.457031 4.34375 "/>
<path style=" stroke:none;fill-rule:nonzero;fill:rgb(100%,100%,100%);fill-opacity:0.392157;" d="M 5.457031 4.34375 C 4.632812 4.34375 3.96875 5.007812 3.96875 5.832031 L 3.96875 6.082031 C 3.96875 5.257812 4.632812 4.59375 5.457031 4.59375 L 42.171875 4.59375 C 42.996094 4.59375 43.660156 5.257812 43.660156 6.082031 L 43.660156 5.832031 C 43.660156 5.007812 42.996094 4.34375 42.171875 4.34375 Z M 5.457031 4.34375 "/>
<path style=" stroke:none;fill-rule:nonzero;fill:rgb(1.176471%,1.176471%,1.176471%);fill-opacity:0.235294;" d="M 5.457031 42.050781 C 4.632812 42.050781 3.96875 41.386719 3.96875 40.5625 L 3.96875 40.3125 C 3.96875 41.136719 4.632812 41.800781 5.457031 41.800781 L 42.171875 41.800781 C 42.996094 41.800781 43.660156 41.136719 43.660156 40.3125 L 43.660156 40.5625 C 43.660156 41.386719 42.996094 42.050781 42.171875 42.050781 Z M 5.457031 42.050781 "/>
<path style=" stroke:none;fill-rule:nonzero;fill:rgb(12.941177%,12.941177%,12.941177%);fill-opacity:1;" d="M 5.457031 4.203125 C 4.558594 4.203125 3.828125 4.933594 3.828125 5.832031 L 3.828125 40.5625 C 3.828125 41.460938 4.558594 42.191406 5.457031 42.191406 L 42.171875 42.191406 C 43.070312 42.191406 43.800781 41.460938 43.800781 40.5625 L 43.800781 5.832031 C 43.800781 4.933594 43.070312 4.203125 42.171875 4.203125 Z M 5.457031 4.484375 L 42.171875 4.484375 C 42.921875 4.484375 43.519531 5.082031 43.519531 5.832031 L 43.519531 40.5625 C 43.519531 41.3125 42.921875 41.910156 42.171875 41.910156 L 5.457031 41.910156 C 4.707031 41.910156 4.109375 41.3125 4.109375 40.5625 L 4.109375 5.832031 C 4.109375 5.082031 4.707031 4.484375 5.457031 4.484375 Z M 5.457031 4.484375 "/>
<path style=" stroke:none;fill-rule:nonzero;fill:url(#linear2);" d="M 23.816406 9.304688 C 31.488281 9.304688 37.707031 15.523438 37.707031 23.199219 C 37.707031 30.871094 31.488281 37.089844 23.816406 37.089844 C 16.140625 37.089844 9.921875 30.871094 9.921875 23.199219 C 9.921875 15.523438 16.140625 9.304688 23.816406 9.304688 Z M 23.816406 9.304688 "/>
<path style=" stroke:none;fill-rule:nonzero;fill:url(#linear3);" d="M 19.84375 18.234375 L 14.882812 22.207031 C 13.890625 23.199219 13.890625 23.199219 14.882812 24.191406 L 19.84375 28.65625 L 19.84375 25.679688 L 27.785156 25.679688 L 27.785156 28.65625 L 32.746094 24.191406 C 33.738281 23.199219 33.738281 23.199219 32.746094 22.207031 L 27.785156 18.234375 L 27.785156 21.214844 L 19.84375 21.214844 Z M 19.84375 18.234375 "/>
<path style=" stroke:none;fill-rule:nonzero;fill:rgb(100%,100%,100%);fill-opacity:0.392157;" d="M 19.84375 18.234375 L 14.882812 22.207031 C 14.230469 22.859375 14.007812 23.082031 14.21875 23.445312 C 14.324219 23.261719 14.546875 23.039062 14.882812 22.703125 L 19.84375 18.730469 Z M 27.785156 18.234375 L 27.785156 18.730469 L 32.746094 22.703125 C 33.082031 23.039062 33.304688 23.261719 33.410156 23.445312 C 33.621094 23.082031 33.402344 22.859375 32.746094 22.207031 Z M 19.84375 21.214844 L 19.84375 21.710938 L 27.785156 21.710938 L 27.785156 21.214844 Z M 19.84375 21.214844 "/>
<path style=" stroke:none;fill-rule:nonzero;fill:rgb(0%,0%,0%);fill-opacity:0.235294;" d="M 14.300781 23.570312 C 13.964844 24.011719 14.15625 24.207031 14.882812 24.933594 L 19.84375 29.398438 L 19.84375 28.65625 L 14.882812 24.191406 C 14.621094 23.925781 14.425781 23.730469 14.300781 23.570312 Z M 33.328125 23.570312 C 33.203125 23.730469 33.011719 23.925781 32.746094 24.191406 L 27.785156 28.65625 L 27.785156 29.398438 L 32.746094 24.933594 C 33.472656 24.207031 33.667969 24.011719 33.328125 23.570312 Z M 19.84375 25.679688 L 19.84375 26.421875 L 27.785156 26.421875 L 27.785156 25.679688 Z M 19.84375 25.679688 "/>
<path style=" stroke:none;fill-rule:nonzero;fill:rgb(12.941177%,12.941177%,12.941177%);fill-opacity:1;" d="M 19.839844 18.09375 C 19.8125 18.097656 19.78125 18.105469 19.757812 18.125 L 14.796875 22.09375 C 14.792969 22.097656 14.789062 22.101562 14.785156 22.105469 C 14.535156 22.355469 14.347656 22.539062 14.214844 22.707031 C 14.082031 22.871094 14 23.027344 14 23.199219 C 14 23.367188 14.082031 23.523438 14.214844 23.6875 C 14.347656 23.855469 14.535156 24.042969 14.785156 24.289062 L 19.75 28.757812 C 19.792969 28.796875 19.851562 28.804688 19.902344 28.785156 C 19.953125 28.761719 19.984375 28.710938 19.984375 28.65625 L 19.984375 25.820312 L 27.644531 25.820312 L 27.644531 28.65625 C 27.644531 28.710938 27.675781 28.761719 27.726562 28.785156 C 27.777344 28.804688 27.835938 28.796875 27.878906 28.757812 L 32.839844 24.292969 C 33.09375 24.042969 33.28125 23.855469 33.414062 23.6875 C 33.546875 23.523438 33.628906 23.367188 33.628906 23.199219 C 33.628906 23.027344 33.546875 22.871094 33.414062 22.707031 C 33.28125 22.539062 33.09375 22.355469 32.84375 22.105469 C 32.839844 22.101562 32.835938 22.097656 32.832031 22.09375 L 27.871094 18.125 C 27.828125 18.09375 27.773438 18.085938 27.722656 18.109375 C 27.675781 18.132812 27.644531 18.183594 27.644531 18.234375 L 27.644531 21.074219 L 19.984375 21.074219 L 19.984375 18.234375 C 19.984375 18.199219 19.972656 18.160156 19.945312 18.136719 C 19.917969 18.109375 19.878906 18.09375 19.839844 18.09375 Z M 19.703125 18.527344 L 19.703125 21.214844 C 19.703125 21.289062 19.769531 21.355469 19.84375 21.355469 L 27.785156 21.355469 C 27.863281 21.355469 27.925781 21.289062 27.925781 21.214844 L 27.925781 18.527344 L 32.652344 22.308594 C 32.894531 22.554688 33.078125 22.738281 33.195312 22.882812 C 33.308594 23.027344 33.347656 23.121094 33.347656 23.199219 C 33.347656 23.273438 33.308594 23.367188 33.195312 23.511719 C 33.078125 23.65625 32.894531 23.839844 32.648438 24.089844 L 27.925781 28.339844 L 27.925781 25.679688 C 27.925781 25.601562 27.863281 25.539062 27.785156 25.539062 L 19.84375 25.539062 C 19.769531 25.539062 19.703125 25.601562 19.703125 25.679688 L 19.703125 28.339844 L 14.980469 24.089844 C 14.734375 23.839844 14.550781 23.65625 14.4375 23.511719 C 14.320312 23.367188 14.28125 23.273438 14.28125 23.199219 C 14.28125 23.121094 14.320312 23.027344 14.4375 22.882812 C 14.550781 22.738281 14.734375 22.554688 14.980469 22.308594 Z M 19.703125 18.527344 "/>
<path style=" stroke:none;fill-rule:nonzero;fill:rgb(1.176471%,1.176471%,1.176471%);fill-opacity:0.235294;" d="M 23.816406 9.304688 C 16.117188 9.304688 9.921875 15.5 9.921875 23.199219 C 9.921875 23.320312 9.925781 23.445312 9.925781 23.570312 C 10.125 16.046875 16.242188 10.050781 23.816406 10.050781 C 31.386719 10.050781 37.507812 16.046875 37.703125 23.570312 C 37.703125 23.445312 37.707031 23.320312 37.707031 23.199219 C 37.707031 15.5 31.511719 9.304688 23.816406 9.304688 Z M 23.816406 9.304688 "/>
<path style=" stroke:none;fill-rule:nonzero;fill:rgb(100%,100%,100%);fill-opacity:0.392157;" d="M 23.816406 37.089844 C 16.117188 37.089844 9.921875 30.894531 9.921875 23.199219 C 9.921875 23.074219 9.925781 22.949219 9.925781 22.824219 C 10.125 30.347656 16.242188 36.34375 23.816406 36.34375 C 31.386719 36.34375 37.507812 30.347656 37.703125 22.824219 C 37.703125 22.949219 37.707031 23.074219 37.707031 23.199219 C 37.707031 30.894531 31.511719 37.089844 23.816406 37.089844 Z M 23.816406 37.089844 "/>
<path style=" stroke:none;fill-rule:nonzero;fill:rgb(12.941177%,12.941177%,12.941177%);fill-opacity:1;" d="M 23.816406 9.164062 C 16.042969 9.164062 9.78125 15.425781 9.78125 23.199219 C 9.78125 30.96875 16.042969 37.230469 23.816406 37.230469 C 31.585938 37.230469 37.847656 30.96875 37.847656 23.199219 C 37.847656 15.425781 31.585938 9.164062 23.816406 9.164062 Z M 23.816406 9.445312 C 31.433594 9.445312 37.566406 15.578125 37.566406 23.199219 C 37.566406 30.816406 31.433594 36.949219 23.816406 36.949219 C 16.195312 36.949219 10.0625 30.816406 10.0625 23.199219 C 10.0625 15.578125 16.195312 9.445312 23.816406 9.445312 Z M 23.816406 9.445312 "/>
</g>
</svg>
